Papirus/22x22/apps/godot.svg

<svg xmlns="http://www.w3.org/2000/svg" width="22" height="22" version="1">
 <path style="opacity:.2" d="m9 2-0.082031 0.0478515-2.417969 0.9521485 0.5 2.5-2.301758 1.0527345-1.198242-1.0527345-2.5 2.5 1 1.547852v5.182617l-1-0.399414v1.666992c2.0133334 3.075833 5.5 4.501953 10 4.501953s7.986666-1.42612 10-4.501953v-1.666992l-1 0.399414v-5.182617l1-1.547852-2.5-2.5-1.198242 1.0527345-2.301758-1.0527345 0.5-2.5-2.5-1-0.855469 1.5h-2.291015z"/>
 <path style="fill:#3888c3" d="m9 1.5-0.082031 0.0478515-2.417969 0.9521485 0.5 2.5-2.301758 1.0527345-1.198242-1.0527345-2.5 2.5 1 1.547852v5.182617l-1-0.399414v1.666992c2.0133334 3.075833 5.5 4.501953 10 4.501953s7.986666-1.42612 10-4.501953v-1.666992l-1 0.399414v-5.182617l1-1.547852-2.5-2.5-1.198242 1.0527345-2.301758-1.0527345 0.5-2.5-2.5-1-0.855469 1.5h-2.291015z"/>
 <path style="opacity:.2;fill:#ffffff" d="m9 1.5l-0.0820312 0.046875-2.4179688 0.953125 0.0917969 0.4628906 2.3261719-0.9160156 0.0820312-0.046875 0.8535156 1.5h1.1464844 1.144531l0.855469-1.5 2.408203 0.9628906 0.091797-0.4628906-2.5-1-0.855469 1.5h-1.144531-1.1464844l-0.8535156-1.5zm-5.5 3.5l-2.5 2.5 0.1953125 0.3046875 2.3046875-2.3046875 1.1972656 1.0527344 2.3027344-1.0527344-0.0917969-0.4589844-2.2109375 1.0117188-1.1972656-1.0527344zm15 0l-1.197266 1.0527344-2.210937-1.0117188-0.091797 0.4589844 2.302734 1.0527344 1.197266-1.0527344 2.304688 2.3046875 0.195312-0.3046875-2.5-2.5zm-17.5 8.832031v0.5l1 0.398438v-0.449219-0.050781l-1-0.398438zm20 0l-1 0.398438v0.050781 0.449219l1-0.398438v-0.5z"/>
 <g style="opacity:.2" transform="matrix(.5 0 0 .5 -1 -.5000545)">
  <path d="m14 20c2.2096 0 4 1.7904 4 4s-1.7904 4-4 4-4-1.7904-4-4 1.7904-4 4-4z"/>
  <path d="m16 24a2 2 0 1 1 -4 0 2 2 0 1 1 4 0z"/>
 </g>
 <g transform="matrix(.5 0 0 .5 -1 -1)">
  <path style="fill:#ffffff" d="m14 20c2.2096 0 4 1.7904 4 4s-1.7904 4-4 4-4-1.7904-4-4 1.7904-4 4-4z"/>
  <path style="fill:#353535" d="m16 24a2 2 0 1 1 -4 0 2 2 0 1 1 4 0z"/>
 </g>
 <path style="opacity:.2" d="m11 10.5c0.554 0 1 0.3345 1 0.75v1.5c0 0.415499-0.446 0.75-1 0.75s-1-0.334501-1-0.75v-1.5c0-0.4155 0.446-0.75 1-0.75z"/>
 <path style="fill:#ffffff" d="m11 10.000054c0.554 0 1 0.3345 1 0.75v1.5c0 0.4155-0.446 0.75-1 0.75s-1-0.3345-1-0.75v-1.5c0-0.4155 0.446-0.75 1-0.75z"/>
 <g style="opacity:.2" transform="matrix(.5 0 0 .5 9 -.5000545)">
  <path d="m14 20c2.2096 0 4 1.7904 4 4s-1.7904 4-4 4-4-1.7904-4-4 1.7904-4 4-4z"/>
  <path d="m16 24a2 2 0 1 1 -4 0 2 2 0 1 1 4 0z"/>
 </g>
 <g transform="matrix(.5 0 0 .5 9 -1)">
  <path style="fill:#ffffff" d="m14 20c2.2096 0 4 1.7904 4 4s-1.7904 4-4 4-4-1.7904-4-4 1.7904-4 4-4z"/>
  <path style="fill:#353535" d="m16 24a2 2 0 1 1 -4 0 2 2 0 1 1 4 0z"/>
 </g>
 <path style="opacity:.2;stroke:#000000;fill:none" d="m20.810219 14.34446-1.310219 0.364963v1.360318l-2 0.66357v-1.393497l-2 0.364964v1.360318l-3 0.434307v-1.5h-1.5m-9.810219-1.654943 1.310219 0.364963v1.360318l2 0.66357v-1.393497l2 0.364964v1.360318l3 0.434307v-1.5h1.5"/>
 <path style="stroke:#ffffff;fill:none" d="m20.810219 13.844707-1.310219 0.364963v1.360318l-2 0.66357v-1.393497l-2 0.364964v1.360318l-3 0.434307v-1.5h-1.5m-9.810219-1.654943 1.310219 0.364963v1.360318l2 0.66357v-1.393497l2 0.364964v1.360318l3 0.434307v-1.5h1.5"/>
</svg>

<svg xmlns="http://www.w3.org/2000/svg" width="22" height="22" version="1">
 <path d="M 9,2 8.917969,2.0478515 6.5,3 7,5.5 4.698242,6.5527345 3.5,5.5 1,8 l 1,1.547852 0,5.182617 0,-0.399414 0,1.666992 c 0,0 2,4.501953 9,4.501953 7,0 9,-4.501953 9,-4.501953 l 0,-1.666992 0,0.399414 L 20,9.547852 21,8 18.5,5.5 17.301758,6.5527345 15,5.5 15.5,3 13,2 12.144531,3.5 9.853516,3.5 Z" style="opacity:0.2"/>
 <path style="fill:#3888c3" d="M 9,1.5 8.917969,1.5478515 6.5,2.5 7,5 4.698242,6.0527345 3.5,5 1,7.5 2,9.047852 2,14.230469 2,13.831055 2,15.498047 C 2,15.498047 4,20 11,20 c 7,0 9,-4.501953 9,-4.501953 l 0,-1.666992 0,0.399414 L 20,9.047852 21,7.5 18.5,5 17.301758,6.0527345 15,5 15.5,2.5 13,1.5 12.144531,3 9.853516,3 Z"/>
 <g style="opacity:0.2" transform="matrix(0.5,0,0,0.5,-1,-0.5000545)">
  <path d="m 14,20 c 2.2096,0 4,1.7904 4,4 0,2.2096 -1.7904,4 -4,4 -2.2096,0 -4,-1.7904 -4,-4 0,-2.2096 1.7904,-4 4,-4 z"/>
  <path d="m 16,24 a 2,2 0 1 1 -4,0 2,2 0 1 1 4,0 z"/>
 </g>
 <g transform="matrix(0.5,0,0,0.5,-1,-1)">
  <path style="fill:#ffffff" d="m 14,20 c 2.2096,0 4,1.7904 4,4 0,2.2096 -1.7904,4 -4,4 -2.2096,0 -4,-1.7904 -4,-4 0,-2.2096 1.7904,-4 4,-4 z"/>
  <path style="fill:#353535" d="m 16,24 a 2,2 0 1 1 -4,0 2,2 0 1 1 4,0 z"/>
 </g>
 <path style="opacity:0.2" d="m 11,10.5 c 0.554,0 1,0.3345 1,0.75 l 0,1.5 c 0,0.415499 -0.446,0.75 -1,0.75 -0.554,0 -1,-0.334501 -1,-0.75 l 0,-1.5 c 0,-0.4155 0.446,-0.75 1,-0.75 z"/>
 <path style="fill:#ffffff" d="m 11,10.000054 c 0.554,0 1,0.3345 1,0.75 l 0,1.5 c 0,0.4155 -0.446,0.75 -1,0.75 -0.554,0 -1,-0.3345 -1,-0.75 l 0,-1.5 c 0,-0.4155 0.446,-0.75 1,-0.75 z"/>
 <g style="opacity:0.2" transform="matrix(0.5,0,0,0.5,9,-0.5000545)">
  <path d="m 14,20 c 2.2096,0 4,1.7904 4,4 0,2.2096 -1.7904,4 -4,4 -2.2096,0 -4,-1.7904 -4,-4 0,-2.2096 1.7904,-4 4,-4 z"/>
  <path d="m 16,24 a 2,2 0 1 1 -4,0 2,2 0 1 1 4,0 z"/>
 </g>
 <g transform="matrix(0.5,0,0,0.5,9,-1)">
  <path style="fill:#ffffff" d="m 14,20 c 2.2096,0 4,1.7904 4,4 0,2.2096 -1.7904,4 -4,4 -2.2096,0 -4,-1.7904 -4,-4 0,-2.2096 1.7904,-4 4,-4 z"/>
  <path style="fill:#353535" d="m 16,24 a 2,2 0 1 1 -4,0 2,2 0 1 1 4,0 z"/>
 </g>
 <path d="m 20,15 -3.5,0 0,2 -4,0 0,-2.00035 -1.5,0 M 2,15 l 3.5,0 0,2 4,0 0,-2.00035 1.5,0" style="opacity:0.2;fill:none;stroke:#000000"/>
 <path style="fill:none;stroke:#ffffff" d="m 20,14.5 -3.5,0 0,2 -4,0 0,-2.00035 -1.5,0 M 2,14.5 l 3.5,0 0,2 4,0 0,-2.00035 1.5,0"/>
 <path style="opacity:0.2;fill:#ffffff" d="M 9,1.5 8.9179688,1.546875 6.5,2.5 6.5917969,2.9628906 8.9179688,2.046875 9,2 9.853516,3.5 12.144531,3.5 13,2 15.408203,2.9628906 15.5,2.5 13,1.5 12.144531,3 9.853516,3 9,1.5 Z M 3.5,5 1,7.5 1.1953125,7.8046875 3.5,5.5 4.6972656,6.5527344 7,5.5 6.9082031,5.0410156 4.6972656,6.0527344 3.5,5 Z M 18.5,5 17.302734,6.0527344 15.091797,5.0410156 15,5.5 17.302734,6.5527344 18.5,5.5 20.804688,7.8046875 21,7.5 18.5,5 Z"/>
</svg>
